src/lib/packages/icons/src/assets/filled/arrow-import.svg

<svg width="24" height="24" viewBox="0 0 24 24" fill="none" xmlns="http://www.w3.org/2000/svg">
<path d="M12 10.586L19.293 3.29301C19.684 2.90201 20.316 2.90201 20.707 3.29301C21.098 3.68401 21.098 4.31607 20.707 4.70707L13.4141 12H16C16.553 12 17 12.448 17 13C17 13.552 16.553 14 16 14H11C10.87 14 10.7399 13.9731 10.6179 13.9231C10.3729 13.8221 10.1789 13.6271 10.0769 13.3821C10.0259 13.2601 10 13.13 10 13V8.00004C10 7.44804 10.447 7.00004 11 7.00004C11.553 7.00004 12 7.44804 12 8.00004V10.586ZM20 12C19.447 12 19 12.448 19 13V17C19 18.439 18.439 19 17 19H7C5.561 19 5 18.439 5 17V7.00004C5 5.56104 5.561 5.00004 7 5.00004H11C11.553 5.00004 12 4.55204 12 4.00004C12 3.44804 11.553 3.00004 11 3.00004H7C4.458 3.00004 3 4.45804 3 7.00004V17C3 19.542 4.458 21 7 21H17C19.542 21 21 19.542 21 17V13C21 12.448 20.553 12 20 12Z" fill="currentColor"/>
</svg>

<svg xmlns="http://www.w3.org/2000/svg" width="24" height="24" fill="none"><path fill="currentColor" d="m12 10.586 7.293-7.293a.999.999 0 1 1 1.414 1.414L13.414 12H16a1 1 0 1 1 0 2h-5a1 1 0 0 1-1-1V8a1 1 0 1 1 2 0v2.586ZM20 12a1 1 0 0 0-1 1v4c0 1.439-.561 2-2 2H7c-1.439 0-2-.561-2-2V7c0-1.439.561-2 2-2h4a1 1 0 1 0 0-2H7C4.458 3 3 4.458 3 7v10c0 2.542 1.458 4 4 4h10c2.542 0 4-1.458 4-4v-4a1 1 0 0 0-1-1Z"/></svg>
